.gitbook/assets/YAML (1).svg

<svg xmlns="http://www.w3.org/2000/svg" width="404" height="251" fill="none" viewBox="0 0 404 251"><path fill="#F2D664" d="M0 0h404v251H0z"/><path fill="#261F00" fill-rule="evenodd" d="m174.846 91.302 7.118 7.259-1.906 6.401a2.215 2.215 0 0 1-1.521 1.497l-.022.007-6.275 1.694-7.22-7.236a13.031 13.031 0 0 0-.362 3.063c0 7.173 5.799 12.979 12.943 12.979 1.563 0 3.057-.277 4.439-.782l1.296-.475 33.001 33.035c.471.472 1.437.894 2.656.891 1.181-.004 2.312-.41 3.096-1.197.785-.786 1.192-1.922 1.195-3.11.004-1.226-.418-2.196-.889-2.668l-33.036-33.07.452-1.282c.474-1.349.734-2.802.734-4.321 0-7.173-5.8-12.98-12.944-12.98-.946 0-1.868.102-2.755.295Zm-4.871-2.842a17.176 17.176 0 0 1 7.626-1.775c9.541 0 17.266 7.751 17.266 17.302 0 1.529-.198 3.013-.571 4.429l31.158 31.19c1.474 1.478 2.159 3.663 2.153 5.735-.006 2.109-.725 4.414-2.458 6.151s-4.035 2.459-6.143 2.465c-2.071.007-4.253-.68-5.728-2.159l-31.094-31.125a17.254 17.254 0 0 1-4.583.616c-9.541 0-17.266-7.751-17.266-17.302 0-2.864.696-5.57 1.929-7.955l1.36-2.628 9.907 9.93 2.72-.735.843-2.83-9.794-9.987 2.675-1.322Z" clip-rule="evenodd"/><path fill="#261F00" fill-rule="evenodd" d="M185.946 154.506c7.196-4.341 15.912-11.635 24.382-20.876 8.47-9.241 14.979-18.558 18.679-26.104 1.856-3.786 2.948-7.012 3.284-9.494.345-2.559-.168-3.792-.756-4.33-.295-.271-1.25-.646-3.659.001-2.254.606-5.144 1.949-8.47 3.93-6.623 3.947-14.543 10.169-21.81 17.058l-2.974-3.137c7.426-7.04 15.599-13.48 22.571-17.634 3.472-2.07 6.755-3.638 9.562-4.392 2.652-.713 5.646-.897 7.701.987 2.162 1.981 2.531 5.044 2.119 8.096-.423 3.128-1.73 6.826-3.687 10.818-3.927 8.011-10.705 17.665-19.373 27.122-8.669 9.457-17.697 17.048-25.336 21.657-3.807 2.296-7.378 3.919-10.458 4.612-3.004.676-6.088.574-8.249-1.407-1.997-1.831-2.461-4.59-2.202-7.369.262-2.825 1.301-6.138 2.905-9.709 3.219-7.164 8.929-15.835 16.353-24.561l3.293 2.801c-7.252 8.523-12.7 16.849-15.702 23.532-1.507 3.353-2.344 6.176-2.545 8.338-.206 2.207.278 3.286.819 3.781.587.539 1.86.943 4.379.377 2.444-.55 5.563-1.919 9.174-4.097Z" clip-rule="evenodd"/><path fill="#9B7C00" d="M166.231 141.133a7.47 7.47 0 0 1 14.939 0 7.47 7.47 0 1 1-14.939 0Z"/><path fill="#261F00" fill-rule="evenodd" d="M173.701 137.986a3.147 3.147 0 1 0 0 6.294 3.147 3.147 0 0 0 0-6.294Zm0-4.322a7.47 7.47 0 1 0 0 14.939 7.47 7.47 0 0 0 0-14.939Z" clip-rule="evenodd"/><path fill="#9B7C00" d="M218.518 114.99a7.47 7.47 0 1 1 14.94 0 7.47 7.47 0 0 1-14.94 0Z"/><path fill="#261F00" fill-rule="evenodd" d="M225.987 111.843a3.146 3.146 0 1 0 0 6.292 3.146 3.146 0 0 0 0-6.292Zm0-4.323a7.47 7.47 0 1 0 .002 14.94 7.47 7.47 0 0 0-.002-14.94Z" clip-rule="evenodd"/></svg>

<svg width="404" height="251" viewBox="0 0 404 251" fill="none" xmlns="http://www.w3.org/2000/svg">
<rect width="404" height="251" fill="#F2D664"/>
<path fill-rule="evenodd" clip-rule="evenodd" d="M174.846 91.3021L181.964 98.5609L180.058 104.962C179.841 105.686 179.268 106.254 178.537 106.459L178.515 106.466L172.24 108.16L165.02 100.924C164.783 101.905 164.658 102.931 164.658 103.987C164.658 111.16 170.457 116.966 177.601 116.966C179.164 116.966 180.658 116.689 182.04 116.184L183.336 115.709L216.337 148.744C216.808 149.216 217.774 149.638 218.993 149.635C220.174 149.631 221.305 149.225 222.089 148.438C222.874 147.652 223.281 146.516 223.284 145.328C223.288 144.102 222.866 143.132 222.395 142.66L189.359 109.59L189.811 108.308C190.285 106.959 190.545 105.506 190.545 103.987C190.545 96.8141 184.745 91.0079 177.601 91.0079C176.655 91.0079 175.733 91.1095 174.846 91.3021ZM169.975 88.4603C172.277 87.323 174.868 86.6851 177.601 86.6851C187.142 86.6851 194.867 94.4363 194.867 103.987C194.867 105.516 194.669 107 194.296 108.416L225.454 139.606C226.928 141.084 227.613 143.269 227.607 145.341C227.601 147.45 226.882 149.755 225.149 151.492C223.416 153.229 221.114 153.951 219.006 153.957C216.935 153.964 214.753 153.277 213.278 151.798L182.184 120.673C180.723 121.075 179.186 121.289 177.601 121.289C168.06 121.289 160.335 113.538 160.335 103.987C160.335 101.123 161.031 98.4162 162.264 96.0321L163.624 93.4041L173.531 103.334L176.251 102.599L177.094 99.7686L167.3 89.7816L169.975 88.4603Z" fill="#261F00"/>
<path fill-rule="evenodd" clip-rule="evenodd" d="M185.946 154.506C193.142 150.165 201.858 142.871 210.328 133.63C218.798 124.389 225.307 115.072 229.007 107.526C230.863 103.74 231.955 100.514 232.291 98.0318C232.636 95.4731 232.123 94.2402 231.535 93.7014C231.24 93.431 230.285 93.0558 227.876 93.703C225.622 94.3087 222.732 95.6516 219.406 97.6334C212.783 101.58 204.863 107.802 197.596 114.691L194.622 111.554C202.048 104.514 210.221 98.0749 217.193 93.9199C220.665 91.8507 223.948 90.2825 226.755 89.5282C229.407 88.8154 232.401 88.6314 234.456 90.5147C236.618 92.4963 236.987 95.5591 236.575 98.6106C236.152 101.739 234.845 105.437 232.888 109.429C228.961 117.44 222.183 127.094 213.515 136.551C204.846 146.008 195.818 153.599 188.179 158.208C184.372 160.504 180.801 162.127 177.721 162.82C174.717 163.496 171.633 163.394 169.472 161.413C167.475 159.582 167.011 156.823 167.27 154.044C167.532 151.219 168.571 147.906 170.175 144.335C173.394 137.171 179.104 128.5 186.528 119.774L189.821 122.575C182.569 131.098 177.121 139.424 174.119 146.107C172.612 149.46 171.775 152.283 171.574 154.445C171.368 156.652 171.852 157.731 172.393 158.226C172.98 158.765 174.253 159.169 176.772 158.603C179.216 158.053 182.335 156.684 185.946 154.506Z" fill="#261F00"/>
<path d="M166.231 141.133C166.231 137.008 169.575 133.664 173.701 133.664C177.826 133.664 181.17 137.008 181.17 141.133C181.17 145.258 177.826 148.603 173.701 148.603C169.575 148.603 166.231 145.258 166.231 141.133Z" fill="#9B7C00"/>
<path fill-rule="evenodd" clip-rule="evenodd" d="M173.701 137.986C171.963 137.986 170.554 139.395 170.554 141.133C170.554 142.871 171.963 144.28 173.701 144.28C175.438 144.28 176.847 142.871 176.847 141.133C176.847 139.395 175.438 137.986 173.701 137.986ZM173.701 133.664C169.575 133.664 166.231 137.008 166.231 141.133C166.231 145.258 169.575 148.603 173.701 148.603C177.826 148.603 181.17 145.258 181.17 141.133C181.17 137.008 177.826 133.664 173.701 133.664Z" fill="#261F00"/>
<path d="M218.518 114.99C218.518 110.865 221.862 107.52 225.987 107.52C230.113 107.52 233.457 110.865 233.457 114.99C233.457 119.115 230.113 122.459 225.987 122.459C221.862 122.459 218.518 119.115 218.518 114.99Z" fill="#9B7C00"/>
<path fill-rule="evenodd" clip-rule="evenodd" d="M225.987 111.843C224.249 111.843 222.841 113.252 222.841 114.99C222.841 116.728 224.249 118.137 225.987 118.137C227.725 118.137 229.134 116.728 229.134 114.99C229.134 113.252 227.725 111.843 225.987 111.843ZM225.987 107.52C221.862 107.52 218.518 110.865 218.518 114.99C218.518 119.115 221.862 122.459 225.987 122.459C230.113 122.459 233.457 119.115 233.457 114.99C233.457 110.865 230.113 107.52 225.987 107.52Z" fill="#261F00"/>
</svg>
